packages/natds-icons/dist/svg/filled-alert-info.svg

<svg width="24" height="24" viewBox="0 0 24 24" xmlns="http://www.w3.org/2000/svg">
<path d="M20.3986 3.49091C18.2169 1.2 15.1626 0 11.8901 0C5.34509 0 0 5.45455 0 12C0 18.6545 5.45417 24 11.9992 24H12.1083C18.7624 24 24.1074 18.5455 23.9984 11.8909C23.9984 8.72727 22.6894 5.67273 20.3986 3.49091ZM12.5446 18.3273C12.5446 18.6545 12.3264 18.8727 11.9992 18.8727C11.6719 18.8727 11.4538 18.6545 11.4538 18.3273V9.6C11.4538 9.27273 11.6719 9.05455 11.9992 9.05455C12.3264 9.05455 12.5446 9.27273 12.5446 9.6V18.3273ZM12.7628 6.98182C12.5446 7.2 12.3264 7.30909 11.9992 7.30909C11.6719 7.30909 11.4538 7.2 11.2356 6.98182C11.0174 6.87273 10.9083 6.54545 10.9083 6.32727C10.9083 5.67273 11.3447 5.23636 11.9992 5.23636C12.2173 5.23636 12.5446 5.34545 12.7628 5.45455C12.9809 5.67273 13.09 6 13.09 6.21818C13.09 6.54545 12.9809 6.87273 12.7628 6.98182Z" />
</svg>

<svg xmlns="http://www.w3.org/2000/svg" viewBox="0 0 24 24"><g clip-path="url(#clip0_855_12702)"><path d="M20.399 3.49C18.217 1.2 15.163 0 11.89 0 5.345 0 0 5.455 0 12c0 6.654 5.454 12 12 12h.108c6.654 0 12-5.454 11.89-12.11 0-3.163-1.309-6.217-3.6-8.4zm-7.854 14.837c0 .327-.219.546-.546.546-.327 0-.545-.219-.545-.546V9.6c0-.327.218-.545.545-.545.327 0 .546.218.546.545v8.727zm.218-11.345c-.218.218-.437.327-.764.327s-.545-.109-.763-.327c-.219-.11-.328-.437-.328-.655 0-.654.437-1.09 1.091-1.09.218 0 .546.108.764.218.218.218.327.545.327.763 0 .327-.11.655-.327.764z"/></g><defs><clipPath id="clip0_855_12702"><path d="M0 0h24v24H0z"/></clipPath></defs></svg>
